client/src/assets/images/reset.svg

<?xml version="1.0" encoding="UTF-8"?>
<svg fill="none" viewBox="0 0 27 25" xmlns="http://www.w3.org/2000/svg">
    <path
        d="m24.829 5.8106c-2.4782-3.9651-6.9357-5.9381-11.374-5.4452-2.2625 0.25126-4.3097 1.2887-5.8483 2.3877-0.77451 0.55325-1.4381 1.1348-1.9546 1.6668-0.33775 0.34785-0.63571 0.69812-0.86101 1.0236l-3.2428-1.5816c-0.79168-0.38613-1.6597 0.3658-1.3905 1.2045l2.2551 7.0243c0.17385 0.5415 0.76371 0.8292 1.2975 0.6328l6.9236-2.5476c0.8267-0.30418 0.8848-1.4512 0.0931-1.8373l-4.1063-2.0028c0.12087-0.15007 0.27539-0.32607 0.46638-0.52277 0.43164-0.44456 1.0039-0.94798 1.6822-1.4325 1.3671-0.97658 3.0935-1.826 4.9065-2.0274 3.7131-0.41236 7.4067 1.2373 9.4568 4.5175 2.0909 3.3453 2.4805 7.8978 0.016 11.595-1.8999 2.8498-5.7495 4.5359-9.5832 4.5359-1.7932 0-3.5369-0.6665-5.0835-1.6087-1.5429-0.94-2.8311-2.119-3.6911-3.0508-0.3746-0.4058-1.0073-0.4311-1.4131-0.0565s-0.43113 1.0073-0.05652 1.4131c0.95126 1.0305 2.3801 2.3421 4.1202 3.4022 1.7364 1.0578 3.8418 1.9007 6.124 1.9007 4.3173 0 8.8843-1.8821 11.247-5.4265 2.9695-4.454 2.4535-9.864 0.016-13.764z"
        clip-rule="evenodd" fill="url(#a)" fill-rule="evenodd" />
    <defs>
        <linearGradient id="a" x1=".1084" x2="26.853" y1="12.646" y2="12.646" gradientUnits="userSpaceOnUse">
            <stop stop-color="#F98F5C" offset="0" />
            <stop stop-color="#FA9268" offset=".47917" />
            <stop stop-color="#FCA262" offset=".91146" />
        </linearGradient>
    </defs>
</svg>

<svg width="27" height="25" viewBox="0 0 27 25" fill="none" xmlns="http://www.w3.org/2000/svg">
<path fill-rule="evenodd" clip-rule="evenodd" d="M24.8292 5.81061C22.351 1.84555 17.8935 -0.127477 13.4557 0.365375C11.1932 0.616636 9.14596 1.65406 7.60739 2.75312C6.83288 3.30637 6.16927 3.88795 5.65279 4.41988C5.31504 4.76773 5.01708 5.118 4.79178 5.44353L1.54894 3.86189C0.757259 3.47576 -0.110808 4.22769 0.158436 5.06636L2.41349 12.0907C2.58734 12.6322 3.1772 12.9199 3.71095 12.7235L10.6345 10.1759C11.4612 9.87172 11.5193 8.72474 10.7276 8.33861L6.62132 6.33586C6.74219 6.18579 6.89671 6.00979 7.0877 5.81309C7.51934 5.36853 8.09158 4.86511 8.76992 4.38055C10.137 3.40397 11.8634 2.5545 13.6764 2.35315C17.3895 1.94079 21.0831 3.59044 23.1332 6.87061C25.2241 10.2159 25.6137 14.7684 23.1492 18.4652C21.2493 21.315 17.3997 23.0011 13.566 23.0011C11.7728 23.0011 10.0291 22.3346 8.48249 21.3924C6.93959 20.4524 5.65142 19.2734 4.79135 18.3416C4.41675 17.9358 3.78409 17.9105 3.37827 18.2851C2.97245 18.6597 2.94714 19.2924 3.32175 19.6982C4.27301 20.7287 5.70185 22.0403 7.44198 23.1004C9.17839 24.1582 11.2838 25.0011 13.566 25.0011C17.8833 25.0011 22.4503 23.119 24.8132 19.5746C27.7827 15.1206 27.2667 9.71058 24.8292 5.81061Z" fill="url(#paint0_linear_119_55)"/>
<defs>
<linearGradient id="paint0_linear_119_55" x1="0.108398" y1="12.6461" x2="26.8531" y2="12.6461" gradientUnits="userSpaceOnUse">
<stop stop-color="#F98F5C"/>
<stop offset="0.479167" stop-color="#FA9268"/>
<stop offset="0.911458" stop-color="#FCA262"/>
</linearGradient>
</defs>
</svg>
